img/exchanges/changelly.svg

<svg height="84" viewBox="0 0 320 84" width="320" xmlns="http://www.w3.org/2000/svg"><g fill="none" fill-rule="evenodd" transform="translate(0 5)"><path d="m90.5053702 37.0195801c0-7.6738121 5.9916022-14.1913812 13.9288398-14.1913812 5.150055 0 8.356243 2.1551381 10.879116 4.8353591l-2.575028 2.7341437c-2.155138-2.2612155-4.678011-3.9946962-8.357127-3.9946962-5.5186738 0-9.7237566 4.6771271-9.7237566 10.6165746 0 5.8864089 4.3093922 10.5644199 9.9862986 10.5644199 3.468729 0 6.044641-1.7865193 8.199779-4.0998895l2.680221 2.4698343c-2.73326 3.0497237-5.991603 5.2570165-11.089503 5.2570165-7.9372376 0-13.9288398-6.4654143-13.9288398-14.1913812zm29.5611048-22.814232 4.046851-1.9933702v15.9248619c1.787403-2.9427625 4.625856-5.3082873 9.303867-5.3082873 6.56884 0 10.406188 4.4154696 10.406188 10.88v16.8716022h-4.046851v-15.8735912c0-5.0457458-2.733259-8.198895-7.516464-8.198895-4.678011 0-8.14674 3.4165746-8.14674 8.5153591v15.5571271h-4.046851zm28.499006 28.3859447c0-5.8342541 4.730165-8.8822099 11.614585-8.8822099 3.469614 0 5.887293.4720442 8.304973 1.1562431v-.841547c0-4.8353591-2.942763-7.358232-8.041547-7.358232-3.206188 0-5.729061.7885082-8.251934 1.9438674l-1.208398-3.3104973c2.995801-1.3675138 5.886409-2.3133701 9.881105-2.3133701 3.836464 0 6.832265 1.0519337 8.777901 2.996685 1.891712 1.8917128 2.837569 4.520663 2.837569 7.9893923v16.6090608h-3.994696v-4.0477348c-1.891713 2.4176795-4.992708 4.6258563-9.775912 4.6258563-5.0979 0-10.143646-2.8906077-10.143646-8.5675138zm19.972596-1.9969061v-2.5228729c-1.99779-.5790055-4.625856-1.1571271-7.937237-1.1571271-5.045746 0-7.936354 2.2081768-7.936354 5.5725967 0 3.4156906 3.154033 5.4134807 6.833149 5.4134807 4.992708 0 9.040442-2.9966851 9.040442-7.3060774zm10.781614-17.1875359h4.04685v4.7301658c1.787404-2.9436464 4.625857-5.3082873 9.303868-5.3082873 6.56884 0 10.406188 4.4154696 10.406188 10.88v16.8716022h-4.046851v-15.8735912c0-5.0457458-2.73326-8.198895-7.516464-8.198895-4.678011 0-8.146741 3.4165746-8.146741 8.5153591v15.5571271h-4.04685zm30.091049 31.9036464 1.839558-3.1540331c3.100995 2.2603315 6.569724 3.4696132 10.459227 3.4696132 5.991602 0 9.881989-3.3113812 9.881989-9.6716022v-3.2053038c-2.365525 3.1531491-5.67779 5.7290607-10.669613 5.7290607-6.51757 0-12.772597-4.8883977-12.772597-12.8247513s6.307182-12.8247514 12.772597-12.8247514c5.0979 0 8.409281 2.5228729 10.616574 5.4665193v-4.8883978h4.046851v22.4433149c0 4.2050829-1.261436 7.4112708-3.468729 9.6185636-2.41768 2.4176795-6.043757 3.6260773-10.354033 3.6260773-4.520663 0-8.725746-1.2614364-12.351824-3.7843094zm22.285967-19.7100552c0-5.5717127-4.836243-9.1969061-9.987182-9.1969061s-9.408177 3.5739227-9.408177 9.2499448c0 5.4656353 4.362431 9.2499447 9.408177 9.2499447 5.150939 0 9.987182-3.7303867 9.987182-9.3029834zm23.11505 12.0890166c3.732155 0 6.360221-1.5248619 8.568398-3.8373481l2.522873 2.2612155c-2.73326 3.0479558-6.045525 5.0970165-11.19558 5.0970165-7.46431 0-13.560221-5.7281768-13.560221-14.1904972 0-7.8841989 5.518674-14.1913812 13.035138-14.1913812 8.041547 0 12.667403 6.4123757 12.667403 14.4017679 0 .3677349 0 .7885083-.053039 1.4196686h-21.549613c.578122 5.7281767 4.783204 9.039558 9.564641 9.039558zm7.937237-12.2987846c-.472928-4.9414364-3.311381-9.1465193-8.672707-9.1465193-4.678011 0-8.251049 3.8903867-8.829171 9.1465193zm9.746652-19.4328397 4.046851-1.9942542v36.6170166h-4.046851zm11.447691-1.7524862 4.046851-1.9933702v38.3681768h-4.046851zm9.41295 43.5756906 1.365746-3.2061879c1.314475.6833149 2.522873.9988951 4.257238.9988951 2.417679 0 3.942541-1.2614365 5.572596-5.0987846l-12.352707-27.0682873h4.468509l9.880221 22.6528177 8.725745-22.6528177h4.309393l-11.405083 28.0662984c-2.312486 5.6247514-4.940553 7.6746961-9.039558 7.6746961-2.261216 0-3.942542-.4729282-5.7821-1.3666298z" fill="#333"/><path d="m63.248442 39.9098343c-11.7666298 10.3487292-16.6762431 11.3414364-21.5460774 9.0740331l5.3153592-6.7155801c.7849723-.9829834 1.3551381-2.1498343 1.6477348-3.3714917l2.1445304-8.9564641-8.9564641 2.1445304c-1.2225415.2925967-2.3885083.8627624-3.3653039 1.6433149l-6.720884 5.318895c-2.2682873-4.8680663-1.2755801-9.7785635 9.0731492-21.5460773 9.7776795-11.1169061 30.4689503-13.66983428 36.601105-14.19138124-.522431 6.13038674-3.0753592 26.82165744-14.1931492 36.60022104zm-7.8338122 16.039779c-.1007734.4985635-.3871823.9325966-.8070718 1.2207734-1.241105.8521547-3.1504972 2.0358011-4.8441989 3.0612155.0274033-.1060773.0556906-.2121547.0830939-.319116.8238674-3.2335912.8150277-5.7281768-.0212154-7.4254144 2.2293922-.678011 4.639116-1.9235359 7.3697237-3.7869613-.6629834 2.5051934-1.4258563 5.4956906-1.7803315 7.2495028zm-18.6121547-5.8050829c-.7009944.8857458-1.7918232 1.3807735-2.9215469 1.3215469l-.042431-.0026519-2.6740331.0053039 9.2764641-11.159337-11.160221 9.2755801.0061878-2.6316022-.0026519-.0839779c-.0583425-1.1279558.4349171-2.2214365 1.321547-2.922431l9.8245303-7.7754696c.6267404-.5003315 1.3710498-.8636464 2.1507183-1.0510497l4.0088398-.96-.96 4.0088398c-.1874034.7796685-.5507183 1.5230939-1.0554697 2.156906zm-15.9646408-19.240663c-.1069614.0274033-.2139227.0548066-.3191161.0830939 1.0254144-1.6937016 2.2081768-3.6030939 3.0612155-4.8433149.2881768-.4207735.7222099-.7080663 1.2207735-.8079558 1.7538121-.3544751 4.7434254-1.1173481 7.2486188-1.7794475-1.8643094 2.7306077-3.1080663 5.1385635-3.7851934 7.3697238-1.6972376-.8362431-4.1909392-.8450829-7.4262983-.0220995zm58.2223204-30.8358011 1.6901657-.0680663-.0680663 1.69104972c-.0459668 1.14475138-1.2923756 28.17944748-15.3723756 40.56220998-1.4329282 1.2605525-2.7836465 2.4-4.0689503 3.4289502-.4923757 1.7962431-2.2037569 8.0981216-2.7659669 10.8844199-.2625414 1.2985636-1.0086188 2.4265194-2.1003315 3.1770166-2.7606629 1.8961326-8.4331491 5.2083978-8.6735911 5.3480663l-4.1255249 2.4061879 1.9085083-4.3774586c1.2446409-2.8640884 2.5246409-7.6711602 1.4709392-9.3860774-.1723757-.2811049-.4587845-.5754696-1.2649723-.6232044l.0008839-.0123757c-2.0304972-.0344751-3.9743646-.5851933-5.9703867-1.6106077l-.4693923.5940331c-1.318895 1.6645304-3.36 2.603315-5.4868508 2.5034255l-7.6145856.0150276.0150276-7.6145857c-.0954696-2.119779.838011-4.1679558 2.5034254-5.4859668l.5940331-.4702762c-1.0254143-1.9960221-1.5805524-3.9398895-1.6141436-5.9695028h-.0088398c-.0477348-.8061879-.3420994-1.0925967-.6232044-1.2649724-1.7149171-1.0537016-6.5219889.2262984-9.3860773 1.4709392l-4.3721547 1.8996686 2.4008839-4.1166851c.1405525-.239558 3.4519337-5.9129282 5.3480663-8.6735912.7504973-1.0925967 1.8784531-1.83779 3.1770166-2.1003315 2.7862984-.5622099 9.0899448-2.2735911 10.8844199-2.7650829 1.0298343-1.2853038 2.1683978-2.63779 3.4289503-4.0698342 12.3827624-14.08000001 39.4183425-15.32640885 40.5630939-15.3723757zm-40.9053702 62.1267624c.6143647-.5701657 1.201326-1.1739226 1.7281768-1.840442-.7443094 1.5363536-1.8298342 2.8994476-3.0081768 4.1564641-1.1907182 1.2534807-2.5361326 2.3646409-3.9690607 3.3493923-1.4346962.9856354-2.9675139 1.8324862-4.5569061 2.5546961-.7938122.3659669-1.6079558.679779-2.4247514.9918232-.8265193.2766851-1.6539227.5639779-2.4972376.7885083-.8353591.2581216-1.6919337.4225415-2.5414364.6276243-.8565746.1520442-1.7113813.3474033-2.5759116.4446409l-1.2950277.1767956-1.2985635.1228729c-.8671823.0937017-1.7343646.1069613-2.6024309.1529282-3.47314921.1264088-6.93834258-.1299448-10.35049727-.6170166l-2.76331492-.3933701 1.78121547-2.1153592c1.70519337-2.0260773 3.20530387-4.1272928 4.41281768-6.4344751 1.22430939-2.2983425 2.21348066-4.7805525 3.17082873-7.2981215.94320441-2.5759116 2.10475141-5.1138122 3.42895031-7.5191161.6691712-1.2030939 1.3807734-2.3805525 2.1498342-3.518232.7637569-1.1394475 1.5699448-2.2506077 2.4680663-3.2830939-1.280884 2.4106077-2.3672928 4.8910497-3.3529282 7.3953591-.9741436 2.5166851-1.8077348 5.0439779-2.5228729 7.6419889-.7443094 2.6377901-1.6114917 5.2791161-2.80839778 7.8470719-.60640884 1.278232-1.29679558 2.5290607-2.06674033 3.7215469-.26607735.4075138-.54187845.8053039-.82209945 1.200442 2.40265194.2333702 4.80972376.3535912 7.21060776.3288398.8194475-.0229834 1.6424309-.0185636 2.4583425-.081326l1.2287293-.0654143 1.2225414-.1166851.6117127-.0583426.6072929-.079558 1.2172375-.158232c.802652-.1449724 1.6159116-.2616575 2.4106078-.4446409 1.6035359-.3244199 3.1823204-.758453 4.7266298-1.2967956 1.5460773-.5348066 3.0585635-1.1756906 4.518895-1.9332597 1.4550277-.7637569 2.8693923-1.6282873 4.1882873-2.639558.6700553-.4932596 1.3047514-1.0360221 1.9155801-1.6079558zm22.6899448-34.0656795c2.1074033 0 4.2139226-.802652 5.8183425-2.4061879 3.2070718-3.2079558 3.2070718-8.4269613 0-11.6349171s-8.4269613-3.2088398-11.6358011 0c-1.5540331 1.5540331-2.4097237 3.6198895-2.4097237 5.8174586 0 2.196685.8556906 4.2634254 2.4097237 5.8174585 1.6035359 1.6035359 3.7109392 2.4061879 5.8174586 2.4061879zm-3.6101658-11.8346962c.9953592-.9944751 2.3027625-1.4921547 3.6101658-1.4921547s2.6148066.4976796 3.6110497 1.4921547c1.9898343 1.9916022 1.9898343 5.2304973 0 7.2212155-1.9907182 1.9907182-5.2304972 1.9907182-7.2212155 0-.9644199-.9644199-1.4956906-2.2461878-1.4956906-3.6101657s.5312707-2.6457459 1.4956906-3.6110498z" fill="#10d078"/></g></svg>

<svg xmlns="http://www.w3.org/2000/svg" xmlns:xlink="http://www.w3.org/1999/xlink" width="320" height="84" version="1.1" viewBox="0 0 320 84"><title>logo-hor-affiliate-1</title><desc>Created with Sketch.</desc><g id="logo-hor-affiliate-1" fill="none" fill-rule="evenodd" stroke="none" stroke-width="1"><g id="Group" transform="translate(0.000000, 5.000000)"><path id="letters" fill="#333" d="M90.5053702,37.0195801 C90.5053702,29.345768 96.4969724,22.8281989 104.43421,22.8281989 C109.584265,22.8281989 112.790453,24.983337 115.313326,27.663558 L112.738298,30.3977017 C110.58316,28.1364862 108.060287,26.4030055 104.381171,26.4030055 C98.8624972,26.4030055 94.6574144,31.0801326 94.6574144,37.0195801 C94.6574144,42.905989 98.9668066,47.584 104.643713,47.584 C108.112442,47.584 110.688354,45.7974807 112.843492,43.4841105 L115.523713,45.9539448 C112.790453,49.0036685 109.53211,51.2109613 104.43421,51.2109613 C96.4969724,51.2109613 90.5053702,44.745547 90.5053702,37.0195801 Z M120.066475,14.2053481 L124.113326,12.2119779 L124.113326,28.1368398 C125.900729,25.1940773 128.739182,22.8285525 133.417193,22.8285525 C139.986033,22.8285525 143.823381,27.2440221 143.823381,33.7085525 L143.823381,50.5801547 L139.77653,50.5801547 L139.77653,34.7065635 C139.77653,29.6608177 137.043271,26.5076685 132.260066,26.5076685 C127.582055,26.5076685 124.113326,29.9242431 124.113326,35.0230276 L124.113326,50.5801547 L120.066475,50.5801547 L120.066475,14.2053481 Z M148.565481,42.5912928 C148.565481,36.7570387 153.295646,33.7090829 160.180066,33.7090829 C163.64968,33.7090829 166.067359,34.1811271 168.485039,34.865326 L168.485039,34.023779 C168.485039,29.1884199 165.542276,26.665547 160.443492,26.665547 C157.237304,26.665547 154.714431,27.4540552 152.191558,28.6094144 L150.98316,25.2989171 C153.978961,23.9314033 156.869569,22.985547 160.864265,22.985547 C164.700729,22.985547 167.69653,24.0374807 169.642166,25.982232 C171.533878,27.8739448 172.479735,30.502895 172.479735,33.9716243 L172.479735,50.5806851 L168.485039,50.5806851 L168.485039,46.5329503 C166.593326,48.9506298 163.492331,51.1588066 158.709127,51.1588066 C153.611227,51.1588066 148.565481,48.2681989 148.565481,42.5912928 Z M168.538077,40.5943867 L168.538077,38.0715138 C166.540287,37.4925083 163.912221,36.9143867 160.60084,36.9143867 C155.555094,36.9143867 152.664486,39.1225635 152.664486,42.4869834 C152.664486,45.902674 155.818519,47.9004641 159.497635,47.9004641 C164.490343,47.9004641 168.538077,44.903779 168.538077,40.5943867 Z M179.319691,23.4068508 L183.366541,23.4068508 L183.366541,28.1370166 C185.153945,25.1933702 187.992398,22.8287293 192.670409,22.8287293 C199.239249,22.8287293 203.076597,27.2441989 203.076597,33.7087293 L203.076597,50.5803315 L199.029746,50.5803315 L199.029746,34.7067403 C199.029746,29.6609945 196.296486,26.5078453 191.513282,26.5078453 C186.835271,26.5078453 183.366541,29.9244199 183.366541,35.0232044 L183.366541,50.5803315 L179.319691,50.5803315 L179.319691,23.4068508 Z M209.41074,55.3104972 L211.250298,52.1564641 C214.351293,54.4167956 217.820022,55.6260773 221.709525,55.6260773 C227.701127,55.6260773 231.591514,52.3146961 231.591514,45.9544751 L231.591514,42.7491713 C229.225989,45.9023204 225.913724,48.478232 220.921901,48.478232 C214.404331,48.478232 208.149304,43.5898343 208.149304,35.6534807 C208.149304,27.7171271 214.456486,22.8287293 220.921901,22.8287293 C226.019801,22.8287293 229.331182,25.3516022 231.538475,28.2952486 L231.538475,23.4068508 L235.585326,23.4068508 L235.585326,45.8501657 C235.585326,50.0552486 234.32389,53.2614365 232.116597,55.4687293 C229.698917,57.8864088 226.07284,59.0948066 221.762564,59.0948066 C217.241901,59.0948066 213.036818,57.8333702 209.41074,55.3104972 Z M231.696707,35.600442 C231.696707,30.0287293 226.860464,26.4035359 221.709525,26.4035359 C216.558586,26.4035359 212.301348,29.9774586 212.301348,35.6534807 C212.301348,41.119116 216.663779,44.9034254 221.709525,44.9034254 C226.860464,44.9034254 231.696707,41.1730387 231.696707,35.600442 Z M254.811757,47.6894586 C258.543912,47.6894586 261.171978,46.1645967 263.380155,43.8521105 L265.903028,46.113326 C263.169768,49.1612818 259.857503,51.2103425 254.707448,51.2103425 C247.243138,51.2103425 241.147227,45.4821657 241.147227,37.0198453 C241.147227,29.1356464 246.665901,22.8284641 254.182365,22.8284641 C262.223912,22.8284641 266.849768,29.2408398 266.849768,37.230232 C266.849768,37.5979669 266.849768,38.0187403 266.796729,38.6499006 L245.247116,38.6499006 C245.825238,44.3780773 250.03032,47.6894586 254.811757,47.6894586 Z M262.748994,35.390674 C262.276066,30.4492376 259.437613,26.2441547 254.076287,26.2441547 C249.398276,26.2441547 245.825238,30.1345414 245.247116,35.390674 L262.748994,35.390674 Z M272.495646,15.9578343 L276.542497,13.9635801 L276.542497,50.5805967 L272.495646,50.5805967 L272.495646,15.9578343 Z M283.943337,14.2053481 L287.990188,12.2119779 L287.990188,50.5801547 L283.943337,50.5801547 L283.943337,14.2053481 Z M293.356287,57.7810387 L294.722033,54.5748508 C296.036508,55.2581657 297.244906,55.5737459 298.979271,55.5737459 C301.39695,55.5737459 302.921812,54.3123094 304.551867,50.4749613 L292.19916,23.406674 L296.667669,23.406674 L306.54789,46.0594917 L315.273635,23.406674 L319.583028,23.406674 L308.177945,51.4729724 C305.865459,57.0977238 303.237392,59.1476685 299.138387,59.1476685 C296.877171,59.1476685 295.195845,58.6747403 293.356287,57.7810387 Z"/><path id="sign" fill="#10D078" d="M63.248442,39.9098343 C51.4818122,50.2585635 46.5721989,51.2512707 41.7023646,48.9838674 L47.0177238,42.2682873 C47.8026961,41.2853039 48.3728619,40.118453 48.6654586,38.8967956 L50.809989,29.9403315 L41.8535249,32.0848619 C40.6309834,32.3774586 39.4650166,32.9476243 38.488221,33.7281768 L31.767337,39.0470718 C29.4990497,34.1790055 30.4917569,29.2685083 40.8404862,17.5009945 C50.6181657,6.3840884 71.3094365,3.83116022 77.4415912,3.30961326 C76.9191602,9.44 74.366232,30.1312707 63.248442,39.9098343 Z M55.4146298,55.9496133 C55.3138564,56.4481768 55.0274475,56.8822099 54.607558,57.1703867 C53.366453,58.0225414 51.4570608,59.2061878 49.7633591,60.2316022 C49.7907624,60.1255249 49.8190497,60.0194475 49.846453,59.9124862 C50.6703204,56.678895 50.6614807,54.1843094 49.8252376,52.4870718 C52.0546298,51.8090608 54.4643536,50.5635359 57.1949613,48.7001105 C56.5319779,51.2053039 55.769105,54.1958011 55.4146298,55.9496133 Z M36.8024751,50.1445304 C36.1014807,51.0302762 35.0106519,51.5253039 33.8809282,51.4660773 L33.8384972,51.4634254 L31.1644641,51.4687293 L40.4409282,40.3093923 L29.2807072,49.5849724 L29.286895,46.9533702 L29.2842431,46.8693923 C29.2259006,45.7414365 29.7191602,44.6479558 30.6057901,43.9469613 L40.4303204,36.1714917 C41.0570608,35.6711602 41.8013702,35.3078453 42.5810387,35.120442 L46.5898785,34.160442 L45.6298785,38.1692818 C45.4424751,38.9489503 45.0791602,39.6923757 44.5744088,40.3261878 L36.8024751,50.1445304 Z M20.8378343,30.9038674 C20.7308729,30.9312707 20.6239116,30.958674 20.5187182,30.9869613 C21.5441326,29.2932597 22.726895,27.3838674 23.5799337,26.1436464 C23.8681105,25.7228729 24.3021436,25.4355801 24.8007072,25.3356906 C26.5545193,24.9812155 29.5441326,24.2183425 32.049326,23.5562431 C30.1850166,26.2868508 28.9412597,28.6948066 28.2641326,30.9259669 C26.566895,30.0897238 24.0731934,30.080884 20.8378343,30.9038674 Z M79.0601547,0.0680662983 L80.7503204,0 L80.6822541,1.69104972 C80.6362873,2.8358011 79.3898785,29.8704972 65.3098785,42.2532597 C63.8769503,43.5138122 62.526232,44.6532597 61.2409282,45.6822099 C60.7485525,47.478453 59.0371713,53.7803315 58.4749613,56.5666298 C58.2124199,57.8651934 57.4663425,58.9931492 56.3746298,59.7436464 C53.6139669,61.639779 47.9414807,64.9520442 47.7010387,65.0917127 L43.5755138,67.4979006 L45.4840221,63.120442 C46.728663,60.2563536 48.008663,55.4492818 46.9549613,53.7343646 C46.7825856,53.4532597 46.4961768,53.158895 45.689989,53.1111602 L45.6908729,53.0987845 C43.6603757,53.0643094 41.7165083,52.5135912 39.7204862,51.4881768 L39.2510939,52.0822099 C37.9321989,53.7467403 35.8910939,54.6855249 33.7642431,54.5856354 L26.1496575,54.600663 L26.1646851,46.9860773 C26.0692155,44.8662983 27.0026961,42.8181215 28.6681105,41.5001105 L29.2621436,41.0298343 C28.2367293,39.0338122 27.6815912,37.0899448 27.648,35.0603315 L27.6391602,35.0603315 C27.5914254,34.2541436 27.2970608,33.9677348 27.0159558,33.7953591 C25.3010387,32.7416575 20.4939669,34.0216575 17.6298785,35.2662983 L13.2577238,37.1659669 L15.6586077,33.0492818 C15.7991602,32.8097238 19.1105414,27.1363536 21.006674,24.3756906 C21.7571713,23.2830939 22.8851271,22.5379006 24.1836906,22.2753591 C26.969989,21.7131492 33.2736354,20.001768 35.0681105,19.5102762 C36.0979448,18.2249724 37.2365083,16.8724862 38.4970608,15.440442 C50.8798232,1.36044199 77.9154033,0.114033149 79.0601547,0.0680662983 Z M38.1547845,62.1948287 C38.7691492,61.624663 39.3561105,61.0209061 39.8829613,60.3543867 C39.1386519,61.8907403 38.0531271,63.2538343 36.8747845,64.5108508 C35.6840663,65.7643315 34.3386519,66.8754917 32.9057238,67.8602431 C31.4710276,68.8458785 29.9382099,69.6927293 28.3488177,70.4149392 C27.5550055,70.7809061 26.7408619,71.0947182 25.9240663,71.4067624 C25.097547,71.6834475 24.2701436,71.9707403 23.4268287,72.1952707 C22.5914696,72.4533923 21.734895,72.6178122 20.8853923,72.822895 C20.0288177,72.9749392 19.174011,73.1702983 18.3094807,73.2675359 L17.014453,73.4443315 L15.7158895,73.5672044 C14.8487072,73.6609061 13.9815249,73.6741657 13.1134586,73.7201326 C9.64030939,73.8465414 6.17511602,73.5901878 2.76296133,73.103116 L-0.000353591161,72.7097459 L1.78086188,70.5943867 C3.48605525,68.5683094 4.98616575,66.4670939 6.19367956,64.1599116 C7.41798895,61.8615691 8.40716022,59.3793591 9.36450829,56.8617901 C10.3077127,54.2858785 11.4692597,51.7479779 12.7934586,49.342674 C13.4626298,48.1395801 14.174232,46.9621215 14.9432928,45.824442 C15.7070497,44.6849945 16.5132376,43.5738343 17.4113591,42.5413481 C16.1304751,44.9519558 15.0440663,47.4323978 14.0584309,49.9367072 C13.0842873,52.4533923 12.2506961,54.9806851 11.535558,57.5786961 C10.7912486,60.2164862 9.9240663,62.8578122 8.72716022,65.425768 C8.12075138,66.704 7.43036464,67.9548287 6.66041989,69.1473149 C6.39434254,69.5548287 6.11854144,69.9526188 5.83832044,70.3477569 C8.24097238,70.5811271 10.6480442,70.7013481 13.0489282,70.6765967 C13.8683757,70.6536133 14.6913591,70.6580331 15.5072707,70.5952707 L16.736,70.5298564 L17.9585414,70.4131713 L18.5702541,70.3548287 L19.177547,70.2752707 L20.3947845,70.1170387 C21.1974365,69.9720663 22.0106961,69.8553812 22.8053923,69.6723978 C24.4089282,69.3479779 25.9877127,68.9139448 27.5320221,68.3756022 C29.0780994,67.8407956 30.5905856,67.1999116 32.0509171,66.4423425 C33.5059448,65.6785856 34.9203094,64.8140552 36.2392044,63.8027845 C36.9092597,63.3095249 37.5439558,62.7667624 38.1547845,62.1948287 Z M60.8447293,28.1291492 C62.9521326,28.1291492 65.0586519,27.3264972 66.6630718,25.7229613 C69.8701436,22.5150055 69.8701436,17.296 66.6630718,14.0880442 C63.456,10.8800884 58.2361105,10.8792044 55.0272707,14.0880442 C53.4732376,15.6420773 52.617547,17.7079337 52.617547,19.9055028 C52.617547,22.1021878 53.4732376,24.1689282 55.0272707,25.7229613 C56.6308066,27.3264972 58.7382099,28.1291492 60.8447293,28.1291492 Z M57.2345635,16.294453 C58.2299227,15.2999779 59.537326,14.8022983 60.8447293,14.8022983 C62.1521326,14.8022983 63.4595359,15.2999779 64.455779,16.294453 C66.4456133,18.2860552 66.4456133,21.5249503 64.455779,23.5156685 C62.4650608,25.5063867 59.2252818,25.5063867 57.2345635,23.5156685 C56.2701436,22.5512486 55.7388729,21.2694807 55.7388729,19.9055028 C55.7388729,18.5415249 56.2701436,17.2597569 57.2345635,16.294453 Z"/></g></g></svg>
